Icons/com_ebay_mobile.svg

<svg viewBox="0 0 48 48" xmlns:xlink="http://www.w3.org/1999/xlink">
 <defs>
  <linearGradient id="0">
   <stop stop-opacity="0"/>
   <stop offset="1"/>
  </linearGradient>
  <linearGradient xlink:href="#0" id="1" gradientUnits="userSpaceOnUse" gradientTransform="translate(4e-7,-48)" y1="47" x2="0" y2="1"/>
  <clipPath id="2">
   <g transform="translate(0,-1004.3622)">
    <rect rx="4" y="1005.36" x="1" height="46" width="46" fill="#1890d0"/>
   </g>
  </clipPath>
  <clipPath id="3">
   <g transform="translate(0,-1004.3622)">
    <rect rx="4" y="1005.36" x="1" height="46" width="46" fill="#1890d0"/>
   </g>
  </clipPath>
 </defs>
 <g>
  <g transform="translate(0,-1004.3622)">
   <path d="m 5,1006.3622 c -2.216,0 -4,1.784 -4,4 l 0,37.25 c 0,2.216 1.784,4 4,4 l 38,0 c 2.216,0 4,-1.784 4,-4 l 0,-37.25 c 0,-2.216 -1.784,-4 -4,-4 l -38,0 z m -4,41.5 0,0.5 c 0,2.216 1.784,4 4,4 l 38,0 c 2.216,0 4,-1.784 4,-4 l 0,-0.5 c 0,2.216 -1.784,4 -4,4 l -38,0 c -2.216,0 -4,-1.784 -4,-4 z" opacity="0.02"/>
   <path d="m 1,1047.6122 0,0.25 c 0,2.216 1.784,4 4,4 l 38,0 c 2.216,0 4,-1.784 4,-4 l 0,-0.25 c 0,2.216 -1.784,4 -4,4 l -38,0 c -2.216,0 -4,-1.784 -4,-4 z" opacity="0.05"/>
   <rect width="46" height="46" x="1" y="1005.61" rx="4" opacity="0.1"/>
  </g>
 </g>
 <g>
  <g transform="translate(0,-1004.3622)">
   <rect rx="4" y="1005.36" x="1" height="46" width="46" fill="#d7d7d7"/>
  </g>
 </g>
 <g>
  <rect transform="scale(1,-1)" width="46" height="46" x="1" y="-46.998" rx="4" opacity="0.1" fill="url(#1)"/>
 </g>
 <g>
  <g clip-path="url(#2)">
   <g opacity="0.1">
    <g>
     <path d="M 29.65625 15 L 32.03125 15 L 35.445312 21.832031 L 38.847656 15 L 41 15 L 35 27 L 32.742188 27 L 34.332031 23.773438 Z M 29.65625 15 "/>
     <path d="M 28.65625 19.820312 C 24.410156 19.820312 24 22.628906 24 23 L 26.113281 23 C 26.113281 23 26.363281 21.160156 28.511719 21.160156 C 29.90625 21.160156 30.988281 21.796875 30.988281 23.027344 L 30.988281 23.464844 L 28.511719 23.464844 C 25.222656 23.464844 23.484375 24.425781 23.484375 26.378906 C 23.484375 28.300781 25.089844 29.34375 27.261719 29.34375 C 30.21875 29.34375 31.171875 27.710938 31.171875 27.710938 C 31.171875 28.359375 31.222656 29 31.222656 29 L 33.101562 29 C 33.101562 29 33.027344 28.207031 33.027344 27.699219 L 33.027344 23.308594 C 33.027344 20.425781 30.703125 19.820312 28.65625 19.820312 Z M 30.988281 24.773438 L 30.988281 25.359375 C 30.988281 26.117188 30.519531 28.007812 27.757812 28.007812 C 26.246094 28.007812 25.597656 27.253906 25.597656 26.378906 C 25.597656 24.785156 27.78125 24.773438 30.988281 24.773438 Z M 30.988281 24.773438 "/>
     <path d="M 17 20 L 17 31.476562 C 17 32.109375 16.960938 33 16.960938 33 L 19 33 C 19 33 19 32.582031 19 32 C 19 32 19.585938 33.320312 21.886719 33.320312 C 24.3125 33.320312 26 31.359375 26 28.554688 C 26 25.945312 24.488281 23.847656 21.929688 23.847656 C 19.539062 23.847656 19 25 19 25 L 19.039062 20 Z M 21.488281 25.226562 C 23.136719 25.226562 24.183594 26.648438 24.183594 28.554688 C 24.183594 30.601562 22.933594 31.9375 21.460938 31.9375 C 19.703125 31.9375 18.753906 30.34375 18.753906 28.574219 C 18.753906 26.925781 19.644531 25.226562 21.488281 25.226562 Z M 21.488281 25.226562 "/>
     <path d="M 12.917969 19.71875 C 10.097656 19.71875 7.746094 20.917969 7.746094 24.527344 C 7.746094 27.390625 9.335938 29 13 29 C 17.3125 29 18 26 18 26 L 15.910156 26 C 15.910156 26 15.117188 27.328125 12.9375 27.328125 C 11.164062 27.328125 9.8125 26.679688 9.8125 25 L 18 25 L 18 23.945312 C 18 22.285156 16.746094 19.71875 12.917969 19.71875 Z M 12.847656 21.066406 C 14.535156 21.066406 15.6875 22.101562 15.6875 23.652344 L 9.859375 23.652344 C 9.859375 22.007812 11.363281 21.066406 12.847656 21.066406 Z M 12.847656 21.066406 "/>
    </g>
   </g>
  </g>
 </g>
 <g>
  <g clip-path="url(#3)">
   <g transform="translate(0,-1)">
    <g>
     <path d="M 29.65625 15 L 32.03125 15 L 35.445312 21.832031 L 38.847656 15 L 41 15 L 35 27 L 32.742188 27 L 34.332031 23.773438 Z M 29.65625 15 " fill="#86b817"/>
     <path d="M 28.65625 19.820312 C 24.410156 19.820312 24 22.628906 24 23 L 26.113281 23 C 26.113281 23 26.363281 21.160156 28.511719 21.160156 C 29.90625 21.160156 30.988281 21.796875 30.988281 23.027344 L 30.988281 23.464844 L 28.511719 23.464844 C 25.222656 23.464844 23.484375 24.425781 23.484375 26.378906 C 23.484375 28.300781 25.089844 29.34375 27.261719 29.34375 C 30.21875 29.34375 31.171875 27.710938 31.171875 27.710938 C 31.171875 28.359375 31.222656 29 31.222656 29 L 33.101562 29 C 33.101562 29 33.027344 28.207031 33.027344 27.699219 L 33.027344 23.308594 C 33.027344 20.425781 30.703125 19.820312 28.65625 19.820312 Z M 30.988281 24.773438 L 30.988281 25.359375 C 30.988281 26.117188 30.519531 28.007812 27.757812 28.007812 C 26.246094 28.007812 25.597656 27.253906 25.597656 26.378906 C 25.597656 24.785156 27.78125 24.773438 30.988281 24.773438 Z M 30.988281 24.773438 " fill="#e2a202"/>
     <path d="M 17 20 L 17 31.476562 C 17 32.109375 16.960938 33 16.960938 33 L 19 33 C 19 33 19 32.582031 19 32 C 19 32 19.585938 33.320312 21.886719 33.320312 C 24.3125 33.320312 26 31.359375 26 28.554688 C 26 25.945312 24.488281 23.847656 21.929688 23.847656 C 19.539062 23.847656 19 25 19 25 L 19.039062 20 Z M 21.488281 25.226562 C 23.136719 25.226562 24.183594 26.648438 24.183594 28.554688 C 24.183594 30.601562 22.933594 31.9375 21.460938 31.9375 C 19.703125 31.9375 18.753906 30.34375 18.753906 28.574219 C 18.753906 26.925781 19.644531 25.226562 21.488281 25.226562 Z M 21.488281 25.226562 " fill="#0062d0"/>
     <path d="M 12.917969 19.71875 C 10.097656 19.71875 7.746094 20.917969 7.746094 24.527344 C 7.746094 27.390625 9.335938 29 13 29 C 17.3125 29 18 26 18 26 L 15.910156 26 C 15.910156 26 15.117188 27.328125 12.9375 27.328125 C 11.164062 27.328125 9.8125 26.679688 9.8125 25 L 18 25 L 18 23.945312 C 18 22.285156 16.746094 19.71875 12.917969 19.71875 Z M 12.847656 21.066406 C 14.535156 21.066406 15.6875 22.101562 15.6875 23.652344 L 9.859375 23.652344 C 9.859375 22.007812 11.363281 21.066406 12.847656 21.066406 Z M 12.847656 21.066406 " fill="#e53036"/>
    </g>
   </g>
  </g>
 </g>
 <g>
  <g transform="translate(0,-1004.3622)">
   <path d="m 1,1043.3622 0,4 c 0,2.216 1.784,4 4,4 l 38,0 c 2.216,0 4,-1.784 4,-4 l 0,-4 c 0,2.216 -1.784,4 -4,4 l -38,0 c -2.216,0 -4,-1.784 -4,-4 z" opacity="0.1"/>
  </g>
 </g>
</svg>

<svg viewBox="0 0 48 48"><defs><linearGradient id="linearGradient3764" x1="1" x2="47" gradientUnits="userSpaceOnUse" gradientTransform="translate(-48.000001,0.00221467)"><stop stop-color="#cdcdcd" stop-opacity="1"/><stop offset="1" stop-color="#d7d7d7" stop-opacity="1"/></linearGradient><clipPath id="clipPath-084520088"><g transform="translate(0,-1004.3622)"><rect rx="4" y="1005.36" x="1" height="46" width="46" fill="#1890d0"/></g></clipPath><clipPath id="clipPath-098068863"><g transform="translate(0,-1004.3622)"><rect rx="4" y="1005.36" x="1" height="46" width="46" fill="#1890d0"/></g></clipPath></defs><g><path d="m 1 43 l 0 0.25 c 0 2.216 1.784 4 4 4 l 38 0 c 2.216 0 4 -1.784 4 -4 l 0 -0.25 c 0 2.216 -1.784 4 -4 4 l -38 0 c -2.216 0 -4 -1.784 -4 -4 z m 0 0.5 l 0 0.5 c 0 2.216 1.784 4 4 4 l 38 0 c 2.216 0 4 -1.784 4 -4 l 0 -0.5 c 0 2.216 -1.784 4 -4 4 l -38 0 c -2.216 0 -4 -1.784 -4 -4 z" opacity="0.02"/><path d="m 1 43.25 l 0 0.25 c 0 2.216 1.784 4 4 4 l 38 0 c 2.216 0 4 -1.784 4 -4 l 0 -0.25 c 0 2.216 -1.784 4 -4 4 l -38 0 c -2.216 0 -4 -1.784 -4 -4 z" opacity="0.05"/><path d="m 1 43 l 0 0.25 c 0 2.216 1.784 4 4 4 l 38 0 c 2.216 0 4 -1.784 4 -4 l 0 -0.25 c 0 2.216 -1.784 4 -4 4 l -38 0 c -2.216 0 -4 -1.784 -4 -4 z" opacity="0.1"/></g><g><rect width="46" height="46" x="-47" y="1" rx="4" transform="matrix(0,-1,1,0,0,0)" fill="url(#linearGradient3764)" fill-opacity="1"/></g><g><g clip-path="url(#clipPath-084520088)"><g opacity="0.1"><!-- color: #d7d7d7 --><g><path d="m 29.656 15 l 2.375 0 l 3.414 6.832 l 3.402 -6.832 l 2.152 0 l -6 12 l -2.258 0 l 1.59 -3.227 m -4.676 -8.773" fill="#000"/><path d="m 28.656 19.82 c -4.246 0 -4.656 2.809 -4.656 3.18 l 2.113 0 c 0 0 0.25 -1.84 2.398 -1.84 c 1.395 0 2.477 0.637 2.477 1.867 l 0 0.438 l -2.477 0 c -3.289 0 -5.03 0.961 -5.03 2.914 c 0 1.922 1.605 2.965 3.777 2.965 c 2.957 0 3.91 -1.633 3.91 -1.633 c 0 0.648 0.051 1.289 0.051 1.289 l 1.879 0 c 0 0 -0.074 -0.793 -0.074 -1.301 l 0 -4.391 c 0 -2.883 -2.324 -3.488 -4.371 -3.488 m 2.332 4.953 l 0 0.586 c 0 0.758 -0.469 2.648 -3.23 2.648 c -1.512 0 -2.16 -0.754 -2.16 -1.629 c 0 -1.594 2.184 -1.605 5.391 -1.605 m 0 0" fill="#000"/><path d="m 17 20 l 0 11.477 c 0 0.633 -0.039 1.523 -0.039 1.523 l 2.039 0 c 0 0 0 -0.418 0 -1 c 0 0 0.586 1.32 2.887 1.32 c 2.426 0 4.113 -1.961 4.113 -4.766 c 0 -2.609 -1.512 -4.707 -4.07 -4.707 c -2.391 0 -2.93 1.152 -2.93 1.152 l 0.039 -5 m 2.449 5.227 c 1.648 0 2.695 1.422 2.695 3.328 c 0 2.047 -1.25 3.383 -2.723 3.383 c -1.758 0 -2.707 -1.594 -2.707 -3.363 c 0 -1.648 0.891 -3.348 2.734 -3.348 m 0 0" fill="#000"/><path d="m 12.918 19.719 c -2.82 0 -5.172 1.199 -5.172 4.809 c 0 2.863 1.59 4.473 5.254 4.473 c 4.313 0 5 -3 5 -3 l -2.09 0 c 0 0 -0.793 1.328 -2.973 1.328 c -1.773 0 -3.125 -0.648 -3.125 -2.328 l 8.188 0 l 0 -1.055 c 0 -1.66 -1.254 -4.227 -5.082 -4.227 m -0.07 1.348 c 1.688 0 2.84 1.035 2.84 2.586 l -5.828 0 c 0 -1.645 1.504 -2.586 2.988 -2.586 m 0 0" fill="#000"/></g></g></g></g><g><g clip-path="url(#clipPath-098068863)"><g transform="translate(0,-1)"><!-- color: #d7d7d7 --><g><path d="m 29.656 15 l 2.375 0 l 3.414 6.832 l 3.402 -6.832 l 2.152 0 l -6 12 l -2.258 0 l 1.59 -3.227 m -4.676 -8.773" fill="#86b817"/><path d="m 28.656 19.82 c -4.246 0 -4.656 2.809 -4.656 3.18 l 2.113 0 c 0 0 0.25 -1.84 2.398 -1.84 c 1.395 0 2.477 0.637 2.477 1.867 l 0 0.438 l -2.477 0 c -3.289 0 -5.03 0.961 -5.03 2.914 c 0 1.922 1.605 2.965 3.777 2.965 c 2.957 0 3.91 -1.633 3.91 -1.633 c 0 0.648 0.051 1.289 0.051 1.289 l 1.879 0 c 0 0 -0.074 -0.793 -0.074 -1.301 l 0 -4.391 c 0 -2.883 -2.324 -3.488 -4.371 -3.488 m 2.332 4.953 l 0 0.586 c 0 0.758 -0.469 2.648 -3.23 2.648 c -1.512 0 -2.16 -0.754 -2.16 -1.629 c 0 -1.594 2.184 -1.605 5.391 -1.605 m 0 0" fill="#e2a202"/><path d="m 17 20 l 0 11.477 c 0 0.633 -0.039 1.523 -0.039 1.523 l 2.039 0 c 0 0 0 -0.418 0 -1 c 0 0 0.586 1.32 2.887 1.32 c 2.426 0 4.113 -1.961 4.113 -4.766 c 0 -2.609 -1.512 -4.707 -4.07 -4.707 c -2.391 0 -2.93 1.152 -2.93 1.152 l 0.039 -5 m 2.449 5.227 c 1.648 0 2.695 1.422 2.695 3.328 c 0 2.047 -1.25 3.383 -2.723 3.383 c -1.758 0 -2.707 -1.594 -2.707 -3.363 c 0 -1.648 0.891 -3.348 2.734 -3.348 m 0 0" fill="#0062d0"/><path d="m 12.918 19.719 c -2.82 0 -5.172 1.199 -5.172 4.809 c 0 2.863 1.59 4.473 5.254 4.473 c 4.313 0 5 -3 5 -3 l -2.09 0 c 0 0 -0.793 1.328 -2.973 1.328 c -1.773 0 -3.125 -0.648 -3.125 -2.328 l 8.188 0 l 0 -1.055 c 0 -1.66 -1.254 -4.227 -5.082 -4.227 m -0.07 1.348 c 1.688 0 2.84 1.035 2.84 2.586 l -5.828 0 c 0 -1.645 1.504 -2.586 2.988 -2.586 m 0 0" fill="#e53036"/></g></g></g></g><g><g transform="translate(0,-1004.3622)"><path d="m 1 1043.36 0 4 c 0 2.216 1.784 4 4 4 l 38 0 c 2.216 0 4 -1.784 4 -4 l 0 -4 c 0 2.216 -1.784 4 -4 4 l -38 0 c -2.216 0 -4 -1.784 -4 -4 z" opacity="0.1"/></g></g></svg>
